arkscan/icons/bcbitcoin.svg

<svg viewBox="0 0 20 20" fill="none" xmlns="http://www.w3.org/2000/svg">
  <path
    d="M9.99965 19.636C15.3217 19.636 19.636 15.3217 19.636 9.99965C19.636 4.67763 15.3217 0.363281 9.99965 0.363281C4.67763 0.363281 0.363281 4.67763 0.363281 9.99965C0.363281 15.3217 4.67763 19.636 9.99965 19.636Z"
    stroke="#F88E0D" stroke-width="0.727273" />
  <path
    d="M10.0002 18.182C14.5189 18.182 18.182 14.5189 18.182 10.0002C18.182 5.48148 14.5189 1.81836 10.0002 1.81836C5.48148 1.81836 1.81836 5.48148 1.81836 10.0002C1.81836 14.5189 5.48148 18.182 10.0002 18.182Z"
    fill="#F88E0D" />
  <path
    d="M10.1813 15.0906V13.636H9.45401V15.0906H8.54492V13.636H6.54492V12.5451H7.99947V7.09055H6.54492V5.99964H8.54492V4.36328H9.45401V5.99964H11.3086C11.6358 5.99964 11.9631 6.03601 12.2904 6.12692C12.5631 6.19965 12.7995 6.32692 13.0176 6.50873C13.2176 6.67237 13.3813 6.87237 13.4722 7.10873C13.5813 7.36328 13.6358 7.63601 13.6358 7.90874C13.6358 8.10874 13.5995 8.30874 13.5267 8.49056C13.3995 8.85419 13.1449 9.16329 12.7995 9.3451C12.6358 9.43601 12.454 9.50874 12.254 9.52692V9.61783C12.4904 9.63601 12.7267 9.69056 12.9449 9.79965C13.1449 9.89056 13.3267 10.036 13.4904 10.1996C13.6358 10.3633 13.7631 10.5451 13.854 10.7633C13.9449 10.9815 13.9813 11.2178 13.9813 11.4542C13.9813 11.7633 13.9267 12.0724 13.7995 12.3633C13.6904 12.636 13.5086 12.8724 13.2722 13.0542C13.0358 13.2542 12.7449 13.3996 12.454 13.4906C12.1086 13.5996 11.7449 13.6542 11.3631 13.636H11.0904V15.0906H10.1813ZM9.45401 12.5451H10.8176C11.1813 12.5633 11.5267 12.4724 11.8358 12.2724C12.0722 12.0724 12.1995 11.7633 12.1813 11.4542C12.1995 11.1451 12.0722 10.836 11.8176 10.6542C11.5086 10.4542 11.1449 10.3633 10.7813 10.3815H9.45401V12.5451ZM9.45401 9.09055H10.654C10.9995 9.10874 11.3631 9.01782 11.654 8.836C11.8904 8.65419 12.0176 8.38146 11.9995 8.09055C12.0176 7.81783 11.8904 7.5451 11.6904 7.3451C11.4358 7.1451 11.1086 7.05419 10.7995 7.07238H9.45401V9.09055ZM10.1813 5.99964V4.36328H11.0904V5.99964H10.1813Z"
    fill="white" />
</svg>

<svg viewBox="0 0 20 20" fill="none" xmlns="http://www.w3.org/2000/svg"><path d="M10 19.636A9.636 9.636 0 0 0 19.636 10 9.636 9.636 0 1 0 10 19.636Z" stroke="#F88E0D" stroke-width=".727"/><path d="M10 18.182a8.182 8.182 0 1 0 0-16.364 8.182 8.182 0 0 0 0 16.364Z" fill="#F88E0D"/><path d="M10.181 15.09v-1.454h-.727v1.455h-.91v-1.455h-2v-1.09H8V7.09H6.545V6h2V4.363h.909V6h1.855c.327 0 .654.036.981.127.273.073.51.2.728.382.2.163.363.363.454.6.11.254.164.527.164.8 0 .2-.036.4-.11.582a1.531 1.531 0 0 1-.726.854c-.164.091-.346.164-.546.182v.09a1.856 1.856 0 0 1 1.6 1.146c.09.219.127.455.127.691 0 .31-.054.618-.181.91-.11.272-.291.508-.528.69-.236.2-.527.346-.818.437-.345.109-.71.163-1.09.145h-.274v1.455h-.909Zm-.727-2.545h1.364c.363.018.709-.073 1.018-.273.236-.2.364-.509.345-.818a.912.912 0 0 0-.363-.8c-.31-.2-.673-.29-1.037-.272H9.454v2.163Zm0-3.454h1.2c.345.018.71-.073 1-.255a.865.865 0 0 0 .345-.745c.019-.273-.109-.546-.309-.746a1.33 1.33 0 0 0-.89-.273H9.454v2.019ZM10.181 6V4.363h.91V6h-.91Z" fill="#fff"/></svg>
